X: 1
T: Paddy Kenny's
M: 2/4
L: 1/8
R: polka
K: Amaj
|:AB/A/ FE|Ac e2|fc ec|B/c/B/A/ FE|
AB/A/ FE|Ac e2|fe cB|1Ac cB:|2A2 cd||
|:e2 e^d/e/|fe cA|Ad de|fe cd|
e2 e^d/e/|fe cA|Bc/d/ cB|1Ag af:|2Ac cB||
